X: 20760
T: Johnny Henry's
R: jig
M: 6/8
K: Dmajor
|:c/B/|A3 BAF|Adf aba|fdf ede|fdB AFG|
A3 BAB|Adf aba|fdf efg|fdc d2:|
|:A|d2 f afa|baf afa|fdf ede|fdB AFA|
d2 f afa|baf afa|fdf ede|fdc d2:|

